X:1
T:Ay luna que reluzes
T:Anonymous
T:Source : Cancionero de Uppsala : Villancicos---Venetia---G.Scotto---1556. Editor : André Vierendeels (14/04/17).
T:Notes : Original clefs : G2, C2, C3, C4 Original note values have been halved Editorial accidentals above the staff Dotted bracket indicates black notes Square bracket indicates ligature
T:Ay luna que reluzes
T:©
T:©
C:Anonymous
Z:©
%%score [ 1 2 [ 3 4 ] ]
L:1/8
Q:1/4=120
M:3/2
K:F
V:1 treble nm="Soprano" snm="S"
V:2 treble nm="Alto" snm="A"
V:3 treble-8 nm="Tenor 1" snm="T 1"
V:4 treble-8 nm="Tenor 2" snm="T 2"
V:1
 d8 A4 | c6 c2 d4 | B4 G8 | A4 B4 c4 | d4 c6 d2 | B4 A8 | A4 B4 c4 | d4 c6 d2 | B4 A8 :: z12 | %10
w: Ay lu-|na que Re-|lu- zes|to- da la|no- che ma|lum- bres,|to- da la|no- che ma|lum- bres,||
w: Por- do|va- ya y|ve- ga|to- da la|no- che ma|lum- bres,|to- da la|no- che ma|lum- bres,||
 A4 B4 c4 | d4 c6 d2 | B4 A8 | A12 :| d8 A4 | c6 d2 e4 | f4 !fermata!d8 :| %17
w: to- da la|no- che ma|lum- *|bres.|Ay lu-|na tan bel-|* la.|
w: to- da la|no- che ma|lum- *|bres.|A lum-|bres me'a la|sier- ra.|
V:2
 z12 | z12 | z12 | F4 G4 A4 | F4 A6 F2 | G4 F8 | F4 G4 A4 | B4 A6 G2 | G4 F8 :: z4 D4 E4 | %10
w: |||To- da la|no- che ma|lum- bres,|to- da la|no- che ma|lum- bres,|to- da|
w: |||To- da la|no- che ma|lum- bres,|to- da la|no- che ma|lum- bres,|to- da|
 F4 G4 E4 | D4 G8 | G4 E8 | F12 :| A8 F4 | G4 c8 | A4 !fermata!A8 :| %17
w: la no- *|che ma|lum- *|bres.|Ay lu-|na tan|bel- la.|
w: la no- *|che ma|lum- *|bres.|A lum-|bres me'a'l|sier- ra.|
V:3
 z12 | z12 | z12 | d4 g4 f4 | d4 A6 B2 | G4 d8 | d4 d4 f4 | f4 f6 f2 | d4 d8 :: A4 B4 c4 | d8 c4 | %11
w: |||To- da la|no- che ma|lum- bres,|to- da la|no- che ma|lum- bres,|to- da la|no- che|
w: |||To- da la|no- che ma|lum- bres,|to- da la|no- che ma|lum- bres,|to- da la|no- che|
 f4 e6 d2 |"^#" d8 c4 | d12 :| f8 d4 | e4 g8 | f8 !fermata!f4 :| %17
w: ma lum- *||bres.|Ay lu-|na tan|bel- la.|
w: ma lum- *||bres|A lum-|bres me'a'l|sier- ra.|
V:4
 z12 | z12 | z12 | z12 | z12 | z12 | D4 G4 F4 | B4 F6 F2 | G4 D8 :: z12 | z4 G4 A4 | B4 c6 B2 | %12
w: ||||||To- da la|no- che ma|lum- bres,||to- da|la no- che|
w: ||||||To- da la|no- che ma-|lum- bres,||to- da|la no- che|
 G4 A8 | D12 :| d8 d4 | c8 c4 | d4 !fermata!D8 :| %17
w: ma lum-|bres.|Ay lu-|na tan|bel- la.|
w: ma lum-|bres.|A lum-|bres me'a'l|sier- ra.|

